neru-light-classic/22x22/status/security-low-symbolic.svg

<?xml version="1.0" encoding="UTF-8" standalone="no"?>
<svg
   xmlns:dc="http://purl.org/dc/elements/1.1/"
   xmlns:cc="http://creativecommons.org/ns#"
   xmlns:rdf="http://www.w3.org/1999/02/22-rdf-syntax-ns#"
   xmlns:svg="http://www.w3.org/2000/svg"
   xmlns="http://www.w3.org/2000/svg"
   xmlns:sodipodi="http://sodipodi.sourceforge.net/DTD/sodipodi-0.dtd"
   xmlns:inkscape="http://www.inkscape.org/namespaces/inkscape"
   width="22"
   height="22"
   version="1.1"
   id="svg4"
   sodipodi:docname="security-low-symbolic.svg"
   inkscape:version="0.92.4 5da689c313, 2019-01-14">
  <metadata
     id="metadata10">
    <rdf:RDF>
      <cc:Work
         rdf:about="">
        <dc:format>image/svg+xml</dc:format>
        <dc:type
           rdf:resource="http://purl.org/dc/dcmitype/StillImage" />
      </cc:Work>
    </rdf:RDF>
  </metadata>
  <defs
     id="defs8" />
  <sodipodi:namedview
     pagecolor="#ffffff"
     bordercolor="#666666"
     borderopacity="1"
     objecttolerance="10"
     gridtolerance="10"
     guidetolerance="10"
     inkscape:pageopacity="0"
     inkscape:pageshadow="2"
     inkscape:window-width="769"
     inkscape:window-height="515"
     id="namedview6"
     showgrid="false"
     inkscape:zoom="10.727273"
     inkscape:cx="11"
     inkscape:cy="11"
     inkscape:window-x="0"
     inkscape:window-y="28"
     inkscape:window-maximized="0"
     inkscape:current-layer="svg4" />
  <path
     style="fill:#3fb7ff;fill-opacity:1"
     class="warning"
     d="m 11,3.5 -6,2 v 7 c 0,2.07 1.5795,3.489 2.9395,4.439 C 9.2995,17.889 11,18.5 11,18.5 c 0,0 1.7005,-0.611 3.061,-1.561 C 15.421,15.979 17,14.54 17,12.5 v -7 z M 8.75,7.0098 11,9.2598 13.25,7.0098 14.49,8.25 12.2402,10.5 14.49,12.75 13.25,13.99 11,11.7402 8.75,13.99 7.5098,12.75 9.7598,10.5 7.5098,8.25 Z"
     id="path2"
     inkscape:connector-curvature="0" />
</svg>

<svg xmlns="http://www.w3.org/2000/svg" width="22" height="22"><path class="warning" d="M11 3.5l-6 2v7c0 2.07 1.58 3.489 2.94 4.439C9.3 17.889 11 18.5 11 18.5s1.7-.611 3.061-1.561C15.421 15.979 17 14.54 17 12.5v-7zM8.75 7.01L11 9.26l2.25-2.25 1.24 1.24-2.25 2.25 2.25 2.25-1.24 1.24L11 11.74l-2.25 2.25-1.24-1.24 2.25-2.25-2.25-2.25z" fill="#3fb7ff"/></svg>
